(setpencolor 99 99 0)

to dragon :len :angle :limit
  ifelse :len < :limit [fd :len] [recur :len :angle :limit]
end

to recur :len :angle :limit
  rt :angle
  dragon (:len / 2) 45 :limit
  rt (:angle * -2)
  dragon (:len / 2) -45 :limit
  rt :angle
end

pd


