(setpencolor 99 99 0)

to dragon :len :angle :limit
  ifelse (:len < :limit) (draw :len :angle) (recur :len :angle :limit)
end

to recur :len :angle :limit
  if (:len < limit) [stop]
  dragon (:len / 2) (:angle + 45) :limit
  dragon (:len / 2) (:angle - 45) :limit
end

to draw :len :angle
  pd
  rt :angle
  fd :len
  pu
end	

pu
dragon 100 0 200
