to dragon :len :angle :limit
  ifelse :len < :limit [fd :len] [recur :len :angle :limit]
end

to recur :len :angle :limit
  rt :angle
  dragon (:len / 2) 45 :limit
  rt (:angle * -2)
  dragon (:len / 2) -45 :limit
  rt :angle
end

to draw :time :limit :space
  if :time > :limit [stop]
  setpencolor :time
  pd
  dragon (1000 * (exp :time)) 45 3
  pu
  fd :space
  draw (:time + 1) :limit :space
end

pu
rt -90
fd 400
rt 180

draw 0 4 0

